FocamapMaui/Resources/AppIcon/appiconfg.svg

﻿<?xml version="1.0" encoding="UTF-8" standalone="no"?>
<!DOCTYPE svg PUBLIC "-//W3C//DTD SVG 1.1//EN" "http://www.w3.org/Graphics/SVG/1.1/DTD/svg11.dtd">
<svg width="456" height="456" viewBox="0 0 456 456" version="1.1" xmlns="http://www.w3.org/2000/svg" xmlns:xlink="http://www.w3.org/1999/xlink" xml:space="preserve" xmlns:serif="http://www.serif.com/" style="fill-rule:evenodd;clip-rule:evenodd;stroke-linejoin:round;stroke-miterlimit:2;">
    <path d="m 105.50037,281.60863 c -2.70293,0 -5.00091,-0.90042 -6.893127,-2.70209 -1.892214,-1.84778 -2.837901,-4.04181 -2.837901,-6.58209 0,-2.58722 0.945687,-4.80389 2.837901,-6.65167 1.892217,-1.84778 4.190197,-2.77167 6.893127,-2.77167 2.74819,0 5.06798,0.92389 6.96019,2.77167 1.93749,1.84778 2.90581,4.06445 2.90581,6.65167 0,2.54028 -0.96832,4.73431 -2.90581,6.58209 -1.89221,1.80167 -4.212,2.70209 -6.96019,2.70209 z" style="fill:#ffffff;fill-rule:nonzero;stroke-width:0.838376" />
    <path d="M 213.56111,280.08446 H 195.99044 L 149.69953,207.0544 c -1.17121,-1.84778 -2.14037,-3.76515 -2.90581,-5.75126 h -0.40578 c 0.36051,2.12528 0.54076,6.67515 0.54076,13.6496 v 65.13172 h -15.54349 v -99.36009 h 18.71925 l 44.7374,71.29798 c 1.89222,2.95695 3.1087,4.98917 3.64945,6.09751 h 0.26996 c -0.45021,-2.6325 -0.67573,-7.09015 -0.67573,-13.37293 v -64.02256 h 15.47557 z" style="fill:#ffffff;fill-rule:nonzero;stroke-width:0.838376" />
    <path d="m 289.25134,280.08446 h -54.40052 v -99.36009 h 52.23835 v 13.99669 h -36.15411 v 28.13085 h 33.31621 v 13.9271 h -33.31621 v 29.37835 h 38.31628 z" style="fill:#ffffff;fill-rule:nonzero;stroke-width:0.838376" />
    <path d="M 366.56466,194.72106 H 338.7222 v 85.3634 h -16.08423 v -85.3634 h -27.77455 v -13.99669 h 71.70124 z" style="fill:#ffffff;fill-rule:nonzero;stroke-width:0.838376" />
</svg>

<svg width="456" height="456" viewBox="0 0 456 456" fill="none" xmlns="http://www.w3.org/2000/svg">
<path d="M105.5 281.609C102.797 281.609 100.499 280.708 98.6072 278.907C96.715 277.059 95.7693 274.865 95.7693 272.325C95.7693 269.737 96.715 267.521 98.6072 265.673C100.499 263.825 102.797 262.901 105.5 262.901C108.249 262.901 110.568 263.825 112.461 265.673C114.398 267.521 115.366 269.737 115.366 272.325C115.366 274.865 114.398 277.059 112.461 278.907C110.568 280.708 108.249 281.609 105.5 281.609Z" fill="white"/>
<path d="M213.561 280.085H195.99L149.7 207.055C148.528 205.207 147.559 203.29 146.794 201.303H146.388C146.748 203.429 146.929 207.979 146.929 214.953V280.085H131.385V180.725H150.105L194.842 252.023C196.734 254.98 197.951 257.012 198.491 258.12H198.761C198.311 255.488 198.086 251.03 198.086 244.747V180.725H213.561V280.085Z" fill="white"/>
<path d="M289.251 280.085H234.851V180.725H287.089V194.721H250.935V222.852H284.251V236.779H250.935V266.158H289.251V280.085Z" fill="white"/>
<path d="M366.565 194.721H338.722V280.085H322.638V194.721H294.863V180.725H366.565V194.721Z" fill="white"/>
</svg>
